X: 1
T:Pretty Peg
R:reel
D:Altan: Harvest Storm
D:Paddy Glackin: In Full Spate
Z:id:hn-reel-459
M:C|
K:D
defd ADFA|defd egfe|defd AFDF|1 FEED CEA,2:|2 FEED CEEG||
FDAD BDAD|FDAD CEEG|(3FED AD BDAD|FDAD A,DDE|
FDdD cDBD|ADFD CEEG|FAdf ecdB|AFGE D2 (3ABc||
